Newaita-dark/apps/48/plexhometheater.svg

<svg height="48pt" viewBox="0 0 48 48" width="48pt" xmlns="http://www.w3.org/2000/svg" xmlns:xlink="http://www.w3.org/1999/xlink"><linearGradient id="a" gradientUnits="userSpaceOnUse" x1="23.81478" x2="23.81478" y1="42.0509045" y2="44.03547050005"><stop offset="0" stop-opacity=".27451"/><stop offset="1" stop-opacity="0"/></linearGradient><linearGradient id="b"><stop offset="0" stop-opacity=".313725"/><stop offset=".222222" stop-opacity=".27451"/><stop offset="1" stop-opacity="0"/></linearGradient><radialGradient id="c" cx="450.908936" cy="189.579361" gradientTransform="matrix(.00000026 -.117199 -.210958 -.00000015 75.219126 95.392999)" gradientUnits="userSpaceOnUse" r="21.166656" xlink:href="#b"/><radialGradient id="d" cx="450.908936" cy="189.579361" gradientTransform="matrix(-.00000026 .117199 .210958 .00000015 -27.589573 -11.291218)" gradientUnits="userSpaceOnUse" r="21.166656" xlink:href="#b"/><radialGradient id="e" cx="450.908936" cy="189.579361" gradientTransform="matrix(-.00000026 -.117199 .210958 -.00000015 -27.589573 95.392999)" gradientUnits="userSpaceOnUse" r="21.166656" xlink:href="#b"/><radialGradient id="f" cx="450.908936" cy="189.579361" gradientTransform="matrix(.00000026 .117199 -.210958 .00000015 75.219123 -11.291219)" gradientUnits="userSpaceOnUse" r="21.166656" xlink:href="#b"/><linearGradient id="g" gradientTransform="matrix(.0248071 0 0 -.0248071 .000001 78.148064)" gradientUnits="userSpaceOnUse" x1="840" x2="840" y1="1455.118164" y2="1695.118164"><stop offset="0" stop-color="#e0e0e0"/><stop offset="1" stop-color="#bdbdbd"/></linearGradient><linearGradient id="h" gradientTransform="matrix(.113024 0 0 .326118 -8.78102 50.462022)" gradientUnits="userSpaceOnUse" x1="306.916656" x2="305.954559" y1="-25.791676" y2="-141.414581"><stop offset="0" stop-color="#424242"/><stop offset="1" stop-color="#616161"/></linearGradient><linearGradient id="i" gradientTransform="matrix(.5 0 0 .571428 169.333206 -297.38092)" gradientUnits="userSpaceOnUse" x1="444.5" x2="444.5" y1="185.875" y2="148.833328"><stop offset="0" stop-color="#4db6ac"/><stop offset="1" stop-color="#009688"/></linearGradient><linearGradient id="j" gradientUnits="userSpaceOnUse" x1="238.125" x2="238.125" y1="85.333336" y2="-73.416664"><stop offset="0" stop-color="#ff7043"/><stop offset="1" stop-color="#ffb74d"/></linearGradient><path d="m11.90625 42.050781h23.816406v1.984375h-23.816406zm0 0" fill="url(#a)"/><path d="m35.722656 42.050781h3.96875v-1.984375h-3.96875zm0 0" fill="url(#c)"/><path d="m11.90625 42.050781h-3.96875v1.984375h3.96875zm0 0" fill="url(#d)"/><path d="m11.90625 42.050781h-3.96875v-1.984375h3.96875zm0 0" fill="url(#e)"/><path d="m35.722656 42.050781h3.96875v1.984375h-3.96875zm0 0" fill="url(#f)"/><path d="m9.921875 42.050781c-1.097656 0-1.984375-.886719-1.984375-1.984375v-3.96875h31.753906v3.96875c0 1.097656-.886718 1.984375-1.984375 1.984375zm0 0" fill="url(#g)"/><path d="m9.921875 41.925781c-1.097656 0-1.984375-.882812-1.984375-1.984375v-.246094c0 1.097657.886719 1.984376 1.984375 1.984376h27.785156c1.097657 0 1.984375-.886719 1.984375-1.984376v.246094c0 1.101563-.886718 1.984375-1.984375 1.984375zm0 0" fill-opacity=".235294"/><path d="m105.823228 233.498837c-11.707216 0-21.164646-9.45743-21.164646-21.164645v-42.329291h338.675992v42.329291c0 11.707215-9.457431 21.164645-21.164646 21.164645zm0 0" fill="none" stroke="#212121" stroke-linecap="round" stroke-width="3" transform="matrix(.093759 0 0 .093759 0 20.158175)"/><path d="m4.960938 4.34375h37.707031c1.097656 0 1.984375.890625 1.984375 1.984375v28.777344c0 1.09375-.886719 1.984375-1.984375 1.984375h-37.707031c-1.09375 0-1.984376-.890625-1.984376-1.984375v-28.777344c0-1.09375.890626-1.984375 1.984376-1.984375zm0 0" fill="url(#h)"/><path d="m391.587605-212.334192c5.832777 0 10.582323 4.749547 10.582323 10.582323s-4.749546 10.582323-10.582323 10.582323c-5.832776 0-10.582323-4.749547-10.582323-10.582323s4.749547-10.582323 10.582323-10.582323zm0 0" fill="url(#i)" stroke="#212121" stroke-linecap="round" stroke-width="3" transform="matrix(.093759 0 0 -.093759 0 20.158175)"/><path d="m216.97928-73.388523c-8.790828 0-13.707025 10.040708-8.374201 16.998377l47.953754 62.369044-47.953754 62.327381c-5.332824 6.957669-.416627 16.998377 8.374201 16.998377h31.746968c3.24969 0 6.332728-1.499857 8.332537-4.124606l52.953277-68.785098c2.916388-3.791305 2.916388-9.082466 0-12.873771l-52.953277-68.785098c-1.999809-2.583087-5.082847-4.124606-8.332537-4.124606zm0 0" fill="url(#j)" stroke="#212121" stroke-linecap="round" stroke-linejoin="round" stroke-width="3" transform="matrix(.093759 0 0 .093759 0 20.158175)"/><path d="m4.960938 4.34375c-1.097657 0-1.984376.886719-1.984376 1.984375v.605469c0-1.097656.886719-1.984375 1.984376-1.984375h37.707031c1.101562 0 1.984375.886719 1.984375 1.984375v-.605469c0-1.097656-.882813-1.984375-1.984375-1.984375zm0 0" fill="#fff" fill-opacity=".392157"/><path d="m2.976562 34.4375v.667969c0 1.097656.886719 1.984375 1.984376 1.984375h37.707031c1.101562 0 1.984375-.886719 1.984375-1.984375v-.667969c0 1.101562-.882813 1.984375-1.984375 1.984375h-37.707031c-1.097657 0-1.984376-.882813-1.984376-1.984375zm0 0" fill-opacity=".235294"/><path d="m4.960938 4.203125c-1.175782 0-2.125.949219-2.125 2.125v28.777344c0 1.175781.949218 2.125 2.125 2.125h37.707031c1.175781 0 2.125-.949219 2.125-2.125v-28.777344c0-1.175781-.949219-2.125-2.125-2.125zm0 .28125h37.707031c1.023437 0 1.84375.820313 1.84375 1.84375v28.777344c0 1.023437-.820313 1.84375-1.84375 1.84375h-37.707031c-1.023438 0-1.84375-.820313-1.84375-1.84375v-28.777344c0-1.023437.820312-1.84375 1.84375-1.84375zm0 0"/></svg>

<?xml version="1.0" encoding="UTF-8"?>
<svg xmlns="http://www.w3.org/2000/svg" xmlns:xlink="http://www.w3.org/1999/xlink" width="48pt" height="48pt" viewBox="0 0 48 48" version="1.1">
<defs>
<linearGradient id="linear0" gradientUnits="userSpaceOnUse" x1="254" y1="233.5" x2="254" y2="254.666672" gradientTransform="matrix(0.093759,0,0,0.093759,-0.00000572259,20.158178)">
<stop offset="0" style="stop-color:rgb(0%,0%,0%);stop-opacity:0.27451;"/>
<stop offset="1" style="stop-color:rgb(0%,0%,0%);stop-opacity:0;"/>
</linearGradient>
<radialGradient id="radial0" gradientUnits="userSpaceOnUse" cx="450.908936" cy="189.579361" fx="450.908936" fy="189.579361" r="21.166656" gradientTransform="matrix(0.000000261256,-0.117199,-0.210958,-0.000000152308,75.219126,95.392999)">
<stop offset="0" style="stop-color:rgb(0%,0%,0%);stop-opacity:0.313725;"/>
<stop offset="0.222222" style="stop-color:rgb(0%,0%,0%);stop-opacity:0.27451;"/>
<stop offset="1" style="stop-color:rgb(0%,0%,0%);stop-opacity:0;"/>
</radialGradient>
<radialGradient id="radial1" gradientUnits="userSpaceOnUse" cx="450.908936" cy="189.579361" fx="450.908936" fy="189.579361" r="21.166656" gradientTransform="matrix(-0.000000261256,0.117199,0.210958,0.000000152308,-27.589573,-11.291218)">
<stop offset="0" style="stop-color:rgb(0%,0%,0%);stop-opacity:0.313725;"/>
<stop offset="0.222222" style="stop-color:rgb(0%,0%,0%);stop-opacity:0.27451;"/>
<stop offset="1" style="stop-color:rgb(0%,0%,0%);stop-opacity:0;"/>
</radialGradient>
<radialGradient id="radial2" gradientUnits="userSpaceOnUse" cx="450.908936" cy="189.579361" fx="450.908936" fy="189.579361" r="21.166656" gradientTransform="matrix(-0.000000261256,-0.117199,0.210958,-0.000000152308,-27.589573,95.392999)">
<stop offset="0" style="stop-color:rgb(0%,0%,0%);stop-opacity:0.313725;"/>
<stop offset="0.222222" style="stop-color:rgb(0%,0%,0%);stop-opacity:0.27451;"/>
<stop offset="1" style="stop-color:rgb(0%,0%,0%);stop-opacity:0;"/>
</radialGradient>
<radialGradient id="radial3" gradientUnits="userSpaceOnUse" cx="450.908936" cy="189.579361" fx="450.908936" fy="189.579361" r="21.166656" gradientTransform="matrix(0.000000261256,0.117199,-0.210958,0.000000152308,75.219123,-11.291219)">
<stop offset="0" style="stop-color:rgb(0%,0%,0%);stop-opacity:0.313725;"/>
<stop offset="0.222222" style="stop-color:rgb(0%,0%,0%);stop-opacity:0.27451;"/>
<stop offset="1" style="stop-color:rgb(0%,0%,0%);stop-opacity:0;"/>
</radialGradient>
<linearGradient id="linear1" gradientUnits="userSpaceOnUse" x1="840" y1="1455.118164" x2="840" y2="1695.118164" gradientTransform="matrix(0.0248071,0,0,-0.0248071,0.00000062506,78.148064)">
<stop offset="0" style="stop-color:rgb(87.843137%,87.843137%,87.843137%);stop-opacity:1;"/>
<stop offset="1" style="stop-color:rgb(74.117647%,74.117647%,74.117647%);stop-opacity:1;"/>
</linearGradient>
<linearGradient id="linear2" gradientUnits="userSpaceOnUse" x1="306.916656" y1="-25.791676" x2="305.954559" y2="-141.414581" gradientTransform="matrix(0.113024,0,0,0.326118,-8.78102,50.462022)">
<stop offset="0" style="stop-color:rgb(25.882353%,25.882353%,25.882353%);stop-opacity:1;"/>
<stop offset="1" style="stop-color:rgb(38.039216%,38.039216%,38.039216%);stop-opacity:1;"/>
</linearGradient>
<linearGradient id="linear3" gradientUnits="userSpaceOnUse" x1="444.5" y1="185.875" x2="444.5" y2="148.833328" gradientTransform="matrix(0.5,0,0,0.571428,169.333206,-297.38092)">
<stop offset="0" style="stop-color:rgb(30.196078%,71.372549%,67.45098%);stop-opacity:1;"/>
<stop offset="1" style="stop-color:rgb(0%,58.823529%,53.333333%);stop-opacity:1;"/>
</linearGradient>
<linearGradient id="linear4" gradientUnits="userSpaceOnUse" x1="238.125" y1="85.333336" x2="238.125" y2="-73.416664" gradientTransform="matrix(1,0,0,1,0,0)">
<stop offset="0" style="stop-color:rgb(100%,43.921569%,26.27451%);stop-opacity:1;"/>
<stop offset="1" style="stop-color:rgb(100%,71.764706%,30.196078%);stop-opacity:1;"/>
</linearGradient>
</defs>
<g id="surface1">
<path style=" stroke:none;fill-rule:nonzero;fill:url(#linear0);" d="M 11.90625 42.050781 L 35.722656 42.050781 L 35.722656 44.035156 L 11.90625 44.035156 Z M 11.90625 42.050781 "/>
<path style=" stroke:none;fill-rule:nonzero;fill:url(#radial0);" d="M 35.722656 42.050781 L 39.691406 42.050781 L 39.691406 40.066406 L 35.722656 40.066406 Z M 35.722656 42.050781 "/>
<path style=" stroke:none;fill-rule:nonzero;fill:url(#radial1);" d="M 11.90625 42.050781 L 7.9375 42.050781 L 7.9375 44.035156 L 11.90625 44.035156 Z M 11.90625 42.050781 "/>
<path style=" stroke:none;fill-rule:nonzero;fill:url(#radial2);" d="M 11.90625 42.050781 L 7.9375 42.050781 L 7.9375 40.066406 L 11.90625 40.066406 Z M 11.90625 42.050781 "/>
<path style=" stroke:none;fill-rule:nonzero;fill:url(#radial3);" d="M 35.722656 42.050781 L 39.691406 42.050781 L 39.691406 44.035156 L 35.722656 44.035156 Z M 35.722656 42.050781 "/>
<path style=" stroke:none;fill-rule:nonzero;fill:url(#linear1);" d="M 9.921875 42.050781 C 8.824219 42.050781 7.9375 41.164062 7.9375 40.066406 L 7.9375 36.097656 L 39.691406 36.097656 L 39.691406 40.066406 C 39.691406 41.164062 38.804688 42.050781 37.707031 42.050781 Z M 9.921875 42.050781 "/>
<path style=" stroke:none;fill-rule:nonzero;fill:rgb(0%,0%,0%);fill-opacity:0.235294;" d="M 9.921875 41.925781 C 8.824219 41.925781 7.9375 41.042969 7.9375 39.941406 L 7.9375 39.695312 C 7.9375 40.792969 8.824219 41.679688 9.921875 41.679688 L 37.707031 41.679688 C 38.804688 41.679688 39.691406 40.792969 39.691406 39.695312 L 39.691406 39.941406 C 39.691406 41.042969 38.804688 41.925781 37.707031 41.925781 Z M 9.921875 41.925781 "/>
<path style="fill:none;stroke-width:3;stroke-linecap:round;stroke-linejoin:miter;stroke:rgb(12.941177%,12.941177%,12.941177%);stroke-opacity:1;stroke-miterlimit:4;" d="M 105.823228 233.498837 C 94.116012 233.498837 84.658582 224.041407 84.658582 212.334192 L 84.658582 170.004901 L 423.334574 170.004901 L 423.334574 212.334192 C 423.334574 224.041407 413.877143 233.498837 402.169928 233.498837 Z M 105.823228 233.498837 " transform="matrix(0.093759,0,0,0.093759,0,20.158175)"/>
<path style=" stroke:none;fill-rule:nonzero;fill:url(#linear2);" d="M 4.960938 4.34375 L 42.667969 4.34375 C 43.765625 4.34375 44.652344 5.234375 44.652344 6.328125 L 44.652344 35.105469 C 44.652344 36.199219 43.765625 37.089844 42.667969 37.089844 L 4.960938 37.089844 C 3.867188 37.089844 2.976562 36.199219 2.976562 35.105469 L 2.976562 6.328125 C 2.976562 5.234375 3.867188 4.34375 4.960938 4.34375 Z M 4.960938 4.34375 "/>
<path style="fill-rule:nonzero;fill:url(#linear3);stroke-width:3;stroke-linecap:round;stroke-linejoin:miter;stroke:rgb(12.941177%,12.941177%,12.941177%);stroke-opacity:1;stroke-miterlimit:4;" d="M 391.587605 -212.334192 C 397.420382 -212.334192 402.169928 -207.584645 402.169928 -201.751869 C 402.169928 -195.919093 397.420382 -191.169546 391.587605 -191.169546 C 385.754829 -191.169546 381.005282 -195.919093 381.005282 -201.751869 C 381.005282 -207.584645 385.754829 -212.334192 391.587605 -212.334192 Z M 391.587605 -212.334192 " transform="matrix(0.093759,0,0,-0.093759,0,20.158175)"/>
<path style="fill-rule:nonzero;fill:url(#linear4);stroke-width:3;stroke-linecap:round;stroke-linejoin:round;stroke:rgb(12.941177%,12.941177%,12.941177%);stroke-opacity:1;stroke-miterlimit:4;" d="M 216.97928 -73.388523 C 208.188452 -73.388523 203.272255 -63.347815 208.605079 -56.390146 L 256.558833 5.978898 L 208.605079 68.306279 C 203.272255 75.263948 208.188452 85.304656 216.97928 85.304656 L 248.726248 85.304656 C 251.975938 85.304656 255.058976 83.804799 257.058785 81.18005 L 310.012062 12.394952 C 312.92845 8.603647 312.92845 3.312486 310.012062 -0.478819 L 257.058785 -69.263917 C 255.058976 -71.847004 251.975938 -73.388523 248.726248 -73.388523 Z M 216.97928 -73.388523 " transform="matrix(0.093759,0,0,0.093759,0,20.158175)"/>
<path style=" stroke:none;fill-rule:nonzero;fill:rgb(100%,100%,100%);fill-opacity:0.392157;" d="M 4.960938 4.34375 C 3.863281 4.34375 2.976562 5.230469 2.976562 6.328125 L 2.976562 6.933594 C 2.976562 5.835938 3.863281 4.949219 4.960938 4.949219 L 42.667969 4.949219 C 43.769531 4.949219 44.652344 5.835938 44.652344 6.933594 L 44.652344 6.328125 C 44.652344 5.230469 43.769531 4.34375 42.667969 4.34375 Z M 4.960938 4.34375 "/>
<path style=" stroke:none;fill-rule:nonzero;fill:rgb(0%,0%,0%);fill-opacity:0.235294;" d="M 2.976562 34.4375 L 2.976562 35.105469 C 2.976562 36.203125 3.863281 37.089844 4.960938 37.089844 L 42.667969 37.089844 C 43.769531 37.089844 44.652344 36.203125 44.652344 35.105469 L 44.652344 34.4375 C 44.652344 35.539062 43.769531 36.421875 42.667969 36.421875 L 4.960938 36.421875 C 3.863281 36.421875 2.976562 35.539062 2.976562 34.4375 Z M 2.976562 34.4375 "/>
<path style=" stroke:none;fill-rule:nonzero;fill:rgb(0%,0%,0%);fill-opacity:1;" d="M 4.960938 4.203125 C 3.785156 4.203125 2.835938 5.152344 2.835938 6.328125 L 2.835938 35.105469 C 2.835938 36.28125 3.785156 37.230469 4.960938 37.230469 L 42.667969 37.230469 C 43.84375 37.230469 44.792969 36.28125 44.792969 35.105469 L 44.792969 6.328125 C 44.792969 5.152344 43.84375 4.203125 42.667969 4.203125 Z M 4.960938 4.484375 L 42.667969 4.484375 C 43.691406 4.484375 44.511719 5.304688 44.511719 6.328125 L 44.511719 35.105469 C 44.511719 36.128906 43.691406 36.949219 42.667969 36.949219 L 4.960938 36.949219 C 3.9375 36.949219 3.117188 36.128906 3.117188 35.105469 L 3.117188 6.328125 C 3.117188 5.304688 3.9375 4.484375 4.960938 4.484375 Z M 4.960938 4.484375 "/>
</g>
</svg>
